assets/symbols/mulberry/wardrobe.svg

<svg height="850.394" viewBox="0 0 850.394 850.394" width="850.394" xmlns="http://www.w3.org/2000/svg"><path d="m195.94 751.83h25.11v40.85h-25.11zm429.76-.64h25.1v41.279h-25.1z" fill="#f6cc4b"/><path d="m451.03 470.44h164.52v247.35h-164.52zm-222.11-.28h164.53v247.35h-164.53zm.28-378.98h164.53v346.06h-164.53zm222.11.28h164.53v346.06h-164.53z" fill="#ffffc2"/><path d="m421.82 748.47v1.94h-222.27v-689.87h222.27zm-28.09-311.23v-346.06h-164.53v346.06zm-.28 280.27v-247.35h-164.53v247.35z" fill="#f6cc4b"/><path d="m647.34 60.54v689.87h-225.52v-689.87zm-31.5 376.98v-346.06h-164.53v346.06zm-.29 280.27v-247.35h-164.52v247.35z" fill="#f6cc4b"/><g fill="none"><g stroke="#231f20"><path d="m647.34 60.54v689.87h-447.79v-689.87" stroke-width="21"/><path d="m199.55 60.54h-43.53" stroke-width="20.424"/><path d="m647.34 60.54h-447.79" stroke-width="21"/><path d="m690.88 60.54h-43.54" stroke-width="20.424"/><path d="m421.82 63.33v685.14" stroke-width="6.808"/><path d="m229.2 91.18h164.53v346.06h-164.53zm-.28 378.98h164.53v247.35h-164.53zm222.39-378.7h164.53v346.06h-164.53zm-.28 378.98h164.52v247.35h-164.52zm-255.09 281.39h25.11v40.85h-25.11zm429.76-.64h25.1v41.279h-25.1z" stroke-width="14"/><path d="m409.15 386.33v57.73m25.64-57.73v58.05" stroke-width="13.616"/></g><path d="m0 0h850.394v850.394h-850.394z"/></g></svg>

<svg xmlns="http://www.w3.org/2000/svg" width="850.394" height="850.394" viewBox="0 0 850.394 850.394" overflow="visible"><path fill="#f6cc4b" d="M195.94 751.83h25.11v40.85h-25.11zM625.7 751.19h25.1v41.279h-25.1z"/><path fill="#ffffc2" d="M451.03 470.44h164.52v247.35H451.03zM228.92 470.16h164.53v247.35H228.92zM229.2 91.18h164.53v346.06H229.2zM451.31 91.46h164.53v346.06H451.31z"/><path d="M421.82 748.47v1.94H199.55V60.54h222.27v687.93zm-28.09-311.23V91.18H229.2v346.06h164.53zm-.28 280.27V470.16H228.92v247.35h164.53z" fill="#f6cc4b"/><path d="M647.34 60.54v689.87H421.82V60.54h225.52zm-31.5 376.98V91.46H451.31v346.06h164.53zm-.29 280.27V470.44H451.03v247.35h164.52z" fill="#f6cc4b"/><g fill="none" stroke="#231f20"><path stroke-width="21" d="M647.34 60.54v689.87H199.55V60.54"/><path stroke-width="20.424" d="M199.55 60.54h-43.53"/><path stroke-width="21" d="M647.34 60.54H199.55"/><path stroke-width="20.424" d="M690.88 60.54h-43.54"/><path stroke-width="6.808" d="M421.82 63.33v685.14"/><path stroke-width="14" d="M229.2 91.18h164.53v346.06H229.2zM228.92 470.16h164.53v247.35H228.92zM451.31 91.46h164.53v346.06H451.31zM451.03 470.44h164.52v247.35H451.03zM195.94 751.83h25.11v40.85h-25.11zM625.7 751.19h25.1v41.279h-25.1z"/><path stroke-width="13.616" d="M409.15 386.33v57.73M434.79 386.33v58.05"/></g><path fill="none" d="M0 0h850.394v850.394H0z"/></svg>
